source/img/icons/card__img/build2.svg

<svg fill="none" height="40" viewBox="0 0 40 40" width="40" xmlns="http://www.w3.org/2000/svg"><path d="m20.5357 35v-25c0-.92046-.7462-1.66666-1.6667-1.66666h-11.36902c-.92047 0-1.66667.74619-1.66667 1.66666v13.8158 11.1842zm0 0h4.3706m-15.62061-22.5h2.50001m-2.50001 3.3333h2.50001m-2.50001 3.3334h2.50001m2.9167-6.6667h2.5m-2.5 3.3333h2.5m-2.5 3.3334h2.5m-7.91671 3.3333h2.50001m2.9167 0h2.5m-7.91671 3.3333h2.50001m2.9167 0h2.5m16.0452 2.353v5.147c0 .9205-.7462 1.6667-1.6667 1.6667h-2.9622m-6.7271-11.2712 4.1554-3.4076c.2245-.1998.5204-.3212.8446-.3212s.6201.1214.8447.3212l8.322 7.5743m-11.152 7.1045h3.7124m-3.7124 0v-2.7573m3.7124 2.7573v-5.5147h-3.7124v2.7574m0 0h1.974" stroke="#000" stroke-width="1.6"/></svg>

<svg width="40" height="40" viewBox="0 0 40 40" fill="none" xmlns="http://www.w3.org/2000/svg">
<path d="M20.5357 35V10C20.5357 9.07954 19.7895 8.33334 18.869 8.33334H7.49998C6.57951 8.33334 5.83331 9.07953 5.83331 10V23.8158V35H20.5357ZM20.5357 35C20.5357 35 23.4915 35 24.9063 35M9.28569 12.5H11.7857M9.28569 15.8333H11.7857M9.28569 19.1667H11.7857M14.7024 12.5H17.2024M14.7024 15.8333H17.2024M14.7024 19.1667H17.2024M9.28569 22.5H11.7857M14.7024 22.5H17.2024M9.28569 25.8333H11.7857M14.7024 25.8333H17.2024M33.2476 28.1863V33.3333C33.2476 34.2538 32.5014 35 31.5809 35H28.6187M21.8916 23.7288L26.047 20.3212C26.2715 20.1214 26.5674 20 26.8916 20C27.2158 20 27.5117 20.1214 27.7363 20.3212L36.0583 27.8955M24.9063 35H28.6187M24.9063 35V32.2427M28.6187 35V29.4853H24.9063V32.2427M24.9063 32.2427H26.8803" stroke="black" stroke-width="1.6"/>
</svg>
